X: 106
T: Hao nanren lun buzai wuo toushang
%%abc-version 2.0
%%abcx-abcm2ps-target-version 5.9.1 (29 Sep 2008)
%%abc-creator hum2abc beta
%%abcx-conversion-date 2013/10/02 07:52:29
%%abc-edited-by Helmut Schaffrath
%%humdrum-veritas 2074048991
%%humdrum-veritas-data 1092585774
%%continueall 1
%%barnumbers 0
L: 1/8
M: 2/4
K: D
d e f e/ d/ [I:setbarnb 1]| 
B A/ F/E2 | 
d e f e/ d/ | 
B4 | 
d e f e/ d/ | 
B A/ F/E2 | 
A d B A/ F/ | 
A4 |]  



